X: 31758
T: Patisserie, The
R: polka
M: 2/4
K: Edorian
|:e2 ee|fd e2|c>c dc|BA B/c/d|
e2 ee|fd e2|c>c dc|BA A2:|
|:E>c BA|BA B/c/d|e2 ee|fd e2|
E>c BA|BA B/c/d|e>f ec|BA A2:|

